X:1
T: Mazeppa
C:
R:Reel
Q: 232
K:Bb
M:4/4
L:1/8
|:((3fga) |ba bf dF Bd|cB Ac Bd fb|ge cg fd Bd|cf =ec' f^f ga|
ba bf dF Bd|cB AB cd ef|ge cg fe cf|B2 b2 B2:|
|:((3Bc^c) |dB GB dB Gd|cB AB ((3GD^F) ((3GAB) |cA FA cA FA|GF =EG ((3FEF) ((3^FGA) |
dB GB dB Gd|cB AB ((3G^FG) ((3AB=B)|cA FA ce dc|B2 b2 B2:|
